src/assets/images/footer/social/twitter.svg

<svg width="56" height="56" viewBox="0 0 56 56" fill="none" xmlns="http://www.w3.org/2000/svg">
<rect width="56" height="56" rx="28" fill="#77E6FF" fill-opacity="0.15"/>
<path d="M39.6654 18.6783C38.4987 19.25 37.3554 19.4822 36.1654 19.8333C34.8575 18.3575 32.9185 18.2758 31.0554 18.9735C29.1922 19.6712 27.9719 21.3768 27.9987 23.3334V24.5C24.2129 24.5969 20.8412 22.8725 18.6654 19.8333C18.6654 19.8333 13.7864 28.5052 23.332 32.6667C21.148 34.1215 18.9699 35.1027 16.332 35C20.1914 37.1035 24.3972 37.8269 28.0384 36.7699C32.215 35.5565 35.6474 32.4264 36.9645 27.7375C37.3575 26.3115 37.5526 24.8382 37.5444 23.359C37.542 23.0685 39.306 20.125 39.6654 18.6772V18.6783Z" stroke="#77E6FF" stroke-width="2.1" stroke-linecap="round" stroke-linejoin="round"/>
</svg>

<svg width="56" height="56" fill="none" xmlns="http://www.w3.org/2000/svg"><rect width="56" height="56" rx="28" fill="#77E6FF" fill-opacity=".15"/><path d="M39.665 18.678c-1.166.572-2.31.804-3.5 1.155-1.307-1.475-3.246-1.557-5.11-.86-1.863.698-3.083 2.404-3.056 4.36V24.5c-3.786.097-7.158-1.628-9.334-4.667 0 0-4.879 8.672 4.667 12.834-2.184 1.454-4.362 2.436-7 2.333 3.86 2.103 8.065 2.827 11.706 1.77 4.177-1.214 7.61-4.344 8.927-9.033.392-1.425.588-2.899.58-4.378-.003-.29 1.761-3.234 2.12-4.682v.001z" stroke="#77E6FF" stroke-width="2.1" stroke-linecap="round" stroke-linejoin="round"/></svg>
